public/svg/different/relationships.svg

<svg width="103" height="108" viewBox="0 0 103 108" fill="none" xmlns="http://www.w3.org/2000/svg">
<path fill-rule="evenodd" clip-rule="evenodd" d="M59.2606 37.4467C67.5152 37.4467 74.5759 30.3916 74.5759 21.2233C74.5759 12.0551 67.5152 5 59.2606 5C51.006 5 43.9453 12.0551 43.9453 21.2233C43.9453 30.3916 51.006 37.4467 59.2606 37.4467ZM59.2606 42.4467C70.4804 42.4467 79.5759 32.9447 79.5759 21.2233C79.5759 9.50201 70.4804 0 59.2606 0C48.0408 0 38.9453 9.50201 38.9453 21.2233C38.9453 32.9447 48.0408 42.4467 59.2606 42.4467Z" fill="#F55E21"/>
<path fill-rule="evenodd" clip-rule="evenodd" d="M82.301 85.4681C83.1886 84.0276 83.8859 81.8241 83.8859 78.321C83.8859 64.3817 72.786 53.2188 59.2613 53.2188C45.7366 53.2188 34.6367 64.3817 34.6367 78.321C34.6367 81.8241 35.334 84.0276 36.2216 85.4681C37.0844 86.8685 38.3722 87.9483 40.3078 88.7901C44.5494 90.635 50.8695 90.9606 59.2613 90.9606C67.6531 90.9606 73.9732 90.635 78.2148 88.7901C80.1504 87.9483 81.4382 86.8685 82.301 85.4681ZM59.2613 95.9606C75.6225 95.9606 88.8859 94.9461 88.8859 78.321C88.8859 61.696 75.6225 48.2188 59.2613 48.2188C42.9001 48.2188 29.6367 61.696 29.6367 78.321C29.6367 94.9461 42.9001 95.9606 59.2613 95.9606Z" fill="#F55E21"/>
<path fill-rule="evenodd" clip-rule="evenodd" d="M28.1204 16.3203C29.5011 16.3205 30.6202 17.44 30.62 18.8207C30.6183 30.577 37.2757 38.7831 40.3832 41.2691C41.0854 41.8309 41.4318 42.7265 41.2903 43.6146C41.1488 44.5027 40.5412 45.2464 39.6992 45.5621C33.7571 47.7903 21.08 57.6571 22.0532 79.0678C22.1159 80.4471 21.0486 81.616 19.6693 81.6787C18.29 81.7414 17.1211 80.6741 17.0584 79.2948C16.1217 58.6869 26.653 47.1439 34.5305 42.5314C30.514 38.0105 25.6184 29.7146 25.62 18.8199C25.6202 17.4392 26.7397 16.3201 28.1204 16.3203Z" fill="#434343"/>
<path fill-rule="evenodd" clip-rule="evenodd" d="M11.1204 16.3203C12.5011 16.3205 13.6202 17.44 13.62 18.8207C13.6183 30.577 20.2757 38.7831 23.3832 41.2691C24.0854 41.8309 24.4318 42.7265 24.2903 43.6146C24.1488 44.5027 23.5412 45.2464 22.6992 45.5621C16.7571 47.7903 4.08001 57.6571 5.05323 79.0678C5.11592 80.4471 4.04861 81.616 2.66933 81.6787C1.29004 81.7414 0.121079 80.6741 0.0583847 79.2948C-0.878338 58.6869 9.65298 47.1439 17.5305 42.5314C13.514 38.0105 8.6184 29.7146 8.62001 18.8199C8.62022 17.4392 9.73967 16.3201 11.1204 16.3203Z" fill="#434343"/>
<path fill-rule="evenodd" clip-rule="evenodd" d="M90.3991 16.3203C89.0184 16.3205 87.8993 17.44 87.8995 18.8207C87.9013 30.577 81.2438 38.7831 78.1364 41.2691C77.4341 41.8309 77.0878 42.7265 77.2292 43.6146C77.3707 44.5027 77.9783 45.2464 78.8203 45.5621C84.7624 47.7903 97.4395 57.6571 96.4663 79.0678C96.4036 80.4471 97.4709 81.616 98.8502 81.6787C100.229 81.7414 101.398 80.6741 101.461 79.2948C102.398 58.6869 91.8666 47.1439 83.989 42.5314C88.0055 38.0105 92.9011 29.7146 92.8995 18.8199C92.8993 17.4392 91.7799 16.3201 90.3991 16.3203Z" fill="#434343"/>
<path d="M102.747 84.8033C102.747 97.601 92.3725 107.976 79.5748 107.976C66.777 107.976 56.4023 97.601 56.4023 84.8033C56.4023 72.0055 66.777 61.6309 79.5748 61.6309C92.3725 61.6309 102.747 72.0055 102.747 84.8033Z" fill="white"/>
<path fill-rule="evenodd" clip-rule="evenodd" d="M79.5748 102.976C89.6111 102.976 97.7472 94.8396 97.7472 84.8033C97.7472 74.7669 89.6111 66.6309 79.5748 66.6309C69.5384 66.6309 61.4023 74.7669 61.4023 84.8033C61.4023 94.8396 69.5384 102.976 79.5748 102.976ZM79.5748 107.976C92.3725 107.976 102.747 97.601 102.747 84.8033C102.747 72.0055 92.3725 61.6309 79.5748 61.6309C66.777 61.6309 56.4023 72.0055 56.4023 84.8033C56.4023 97.601 66.777 107.976 79.5748 107.976Z" fill="#A4BA04"/>
<path fill-rule="evenodd" clip-rule="evenodd" d="M91.1246 79.4002C92.1009 80.3765 92.1009 81.9594 91.1246 82.9357L79.9399 94.1205C79.471 94.5893 78.835 94.8527 78.1719 94.8527C77.5088 94.8527 76.8729 94.5892 76.4041 94.1202L69.2086 86.9229C68.2324 85.9465 68.2326 84.3636 69.209 83.3874C70.1855 82.4112 71.7684 82.4114 72.7446 83.3878L78.1723 88.8169L87.5891 79.4002C88.5654 78.4239 90.1483 78.4239 91.1246 79.4002Z" fill="#A4BA04"/>
</svg>

<svg width="103" height="108" fill="none" xmlns="http://www.w3.org/2000/svg"><path fill-rule="evenodd" clip-rule="evenodd" d="M59.26 37.447c8.255 0 15.316-7.055 15.316-16.224C74.576 12.055 67.516 5 59.26 5c-8.255 0-15.316 7.055-15.316 16.223 0 9.169 7.061 16.224 15.316 16.224zm0 5c11.22 0 20.316-9.502 20.316-21.224C79.576 9.502 70.48 0 59.26 0 48.04 0 38.945 9.502 38.945 21.223c0 11.722 9.096 21.224 20.316 21.224zm23.041 43.021c.888-1.44 1.585-3.644 1.585-7.147 0-13.94-11.1-25.102-24.625-25.102-13.524 0-24.624 11.163-24.624 25.102 0 3.503.697 5.707 1.585 7.147.862 1.4 2.15 2.48 4.086 3.322 4.241 1.845 10.562 2.17 18.953 2.17 8.392 0 14.712-.325 18.954-2.17 1.935-.842 3.223-1.922 4.086-3.322zm-23.04 10.493c16.361 0 29.625-1.015 29.625-17.64S75.623 48.219 59.26 48.219c-16.36 0-29.624 13.477-29.624 30.102S42.9 95.961 59.26 95.961z" fill="#F55E21"/><path fill-rule="evenodd" clip-rule="evenodd" d="M28.12 16.32a2.5 2.5 0 012.5 2.5c-.002 11.757 6.656 19.963 9.763 22.45a2.5 2.5 0 01-.684 4.292C33.757 47.79 21.08 57.657 22.053 79.068a2.5 2.5 0 11-4.995.227c-.936-20.608 9.595-32.151 17.473-36.764-4.017-4.52-8.913-12.816-8.911-23.711a2.5 2.5 0 012.5-2.5z" fill="#434343"/><path fill-rule="evenodd" clip-rule="evenodd" d="M11.12 16.32a2.5 2.5 0 012.5 2.5c-.002 11.757 6.656 19.963 9.763 22.45a2.5 2.5 0 01-.684 4.292C16.757 47.79 4.08 57.657 5.053 79.068a2.5 2.5 0 11-4.995.227C-.878 58.687 9.653 47.144 17.531 42.53c-4.017-4.52-8.913-12.816-8.911-23.711a2.5 2.5 0 012.5-2.5zm79.28 0a2.5 2.5 0 00-2.5 2.5c.001 11.757-6.656 19.963-9.764 22.45a2.5 2.5 0 00.684 4.292c5.942 2.228 18.62 12.095 17.646 33.506a2.5 2.5 0 104.995.227c.937-20.608-9.594-32.151-17.472-36.764 4.016-4.52 8.912-12.816 8.91-23.711a2.5 2.5 0 00-2.5-2.5z" fill="#434343"/><path d="M102.747 84.803c0 12.798-10.374 23.173-23.172 23.173S56.402 97.601 56.402 84.803c0-12.797 10.375-23.172 23.173-23.172 12.797 0 23.172 10.374 23.172 23.172z" fill="#fff"/><path fill-rule="evenodd" clip-rule="evenodd" d="M79.575 102.976c10.036 0 18.172-8.136 18.172-18.173 0-10.036-8.136-18.172-18.172-18.172-10.037 0-18.173 8.136-18.173 18.172 0 10.037 8.136 18.173 18.173 18.173zm0 5c12.797 0 23.172-10.375 23.172-23.173 0-12.797-10.374-23.172-23.172-23.172S56.402 72.005 56.402 84.803s10.375 23.173 23.173 23.173z" fill="#A4BA04"/><path fill-rule="evenodd" clip-rule="evenodd" d="M91.125 79.4a2.5 2.5 0 010 3.536L79.94 94.12a2.5 2.5 0 01-3.536 0l-7.195-7.197a2.5 2.5 0 113.536-3.535l5.427 5.429L87.59 79.4a2.5 2.5 0 013.536 0z" fill="#A4BA04"/></svg>
